X: 199
T: Tous nobles coeurs
N: Derived from Rue3023-Tous_nobles_coeurs.krn
C: Pierre de la Rue
%%abc-version 2.0
%%abcx-abcm2ps-target-version 5.9.1 (29 Sep 2008)
%%abc-creator hum2abc beta
%%abcx-conversion-date 2019/02/17 08:01:18
%%abc-edited-by Jesse Rodin
%%abc-edited-by Chris Gage 06-17-2013
%%abcx-initial-encoding-date 2013/08/08/
%%humdrum-veritas 1862508838
%%humdrum-veritas-data 4264599883
%%linebreak <none>
%%barnumbers 0
L: 1/4
M: 2/1
Q: 1/2=120
V: 1 clef=treble
V: 2 clef=treble
V: 3 clef=bass
K: C
[V:1] z8 | 
[V:2] z8 | 
[V:3] z4z2D2 | 
[V:1] z8 | 
[V:2] z8 | 
[V:3] D4C4 | 
[V:1] z8 | 
[V:2] z2A2A4 | 
[V:3] D2A,2C2D2 | 
[V:1] z4z2d2 | 
[V:2] G4A2D2 | 
[V:3] B,4A,2_B,2- | 
[V:1] d4^c4 | 
[V:2] F2G2E4 | 
[V:3] B,2A,G,A,4 | 
[V:1] d4z2f2 | 
[V:2] D4z2D2 | 
[V:3] D,8 | 
[V:1] f8 | 
[V:2] F3GAF_B2- | 
[V:3] z2D,2F,2G,2 | 
[V:1] e4d4 | 
[V:2] B2A4G2 | 
[V:3] A,4_B,4 | 
[V:1] c4z2A2 | 
[V:2] A4z2A2 | 
[V:3] A,8 | 
[V:1] c3decf2- | 
[V:2] A8 | 
[V:3] z2A,2C2D2 | 
[V:1] f2e4d2 | 
[V:2] G4F4 | 
[V:3] E2C2D4 | 
[V:1] e4z2A2- | 
[V:2] E4z2F2- | 
[V:3] A,8 | 
[V:1] ABc3BAG | 
[V:2] F2EDE2C2 | 
[V:3] F,4z2F,2 | 
[V:1] F2A2G4 | 
[V:2] D2F4E2 | 
[V:3] F,4C4 | 
[V:1] F4z2f2- | 
[V:2] F4z2A2- | 
[V:3] F,8- | 
[V:1] f2ede2c2 | 
[V:2] ABc3BAG | 
[V:3] F,4z2F,2 | 
[V:1] d2f4e2 | 
[V:2] F2A2G4 | 
[V:3] F,4C4 | 
[V:1] f8 | 
[V:2] F4z2F2 | 
[V:3] D2F4ED | 
[V:1] z8 | 
[V:2] G2_B4AG | 
[V:3] E2D2G,2D2- | 
[V:1] z4z2c2 | 
[V:2] F2G2A4 | 
[V:3] D2CB,A,4 | 
[V:1] d2f4ed | 
[V:2] D2A4GF | 
[V:3] z2A,2D,2A,2- | 
[V:1] c2d2e4 | 
[V:2] E2D4^C2 | 
[V:3] A,2G,F,E,4 | 
[V:1] A2d2cdB2 | 
[V:2] D2F4G2 | 
[V:3] D,4z2E,2 | 
[V:1] A2edecd2 | 
[V:2] A2cBcAB2 | 
[V:3] F,G,A,B,A,2G,2 | 
[V:1] c3BAGA2- | 
[V:2] A4FEFD | 
[V:3] A,4D,2D2 | 
[V:1] A2GFE4 | 
[V:2] E2D4^C2 | 
[V:3] C2D2A,4 | 
[V:1] D2A4Bc | 
[V:2] D4z4 | 
[V:3] z2D3CB,A, | 
[V:1] dcBAB4 | 
[V:2] z8 | 
[V:3] B,2A,4^G,2 | 
[V:1] A2Bcdef2 | 
[V:2] z2D4EF | 
[V:3] A,2zG,F,2D,2 | 
[V:1] e2d4^c2 | 
[V:2] GFEDE4 | 
[V:3] E,2F,2G,2A,2 | 
[V:1] d8 | 
[V:2] z2D3EFG | 
[V:3] _B,3A,G,F,A,2- | 
[V:1] z8 | 
[V:2] E2D4^C2 | 
[V:3] A,2G,F,E,4 | 
[V:1] z2A3Bcd | 
[V:2] D2F3EDC | 
[V:3] D,4z4 | 
[V:1] B2A4^G2 | 
[V:2] DCB,A,B,4 | 
[V:3] z8 | 
[V:1] A8 | 
[V:2] A,8 | 
[V:3] z2D,3E,F,G, | 
[V:1] z2A3Bcd | 
[V:2] z8 | 
[V:3] E,2D,2A,4 | 
[V:1] B2A2e4 | 
[V:2] z2A,3B,CD | 
[V:3] G,2F,2A,2A,2 | 
[V:1] z2c4de | 
[V:2] B,2A,2E2F2- | 
[V:3] G,2A,4D,2- | 
[V:1] f2f2g4 | 
[V:2] FED4^C2 | 
[V:3] D,E,F,G,E,4 | 
[V:1] f2ecd2cA | 
[V:2] D4B2AF | 
[V:3] D,2A,2G,2A,2 | 
[V:1] B2A2z2d2 | 
[V:2] G2FDE2D2 | 
[V:3] z2D,2C,2D,2 | 
[V:1] c2d4cB | 
[V:2] z2DEFGA2- | 
[V:3] A,2_B,4A,G, | 
[V:1] cBAGA4 | 
[V:2] A2G4^F2 | 
[V:3] F,2G,2D,4 | 
[V:1] z2ABcde2- | 
[V:2] G2A4GF | 
[V:3] z2D4C2 | 
[V:1] edd4^c2 | 
[V:2] GFEDE4 | 
[V:3] D2B,2A,4 | 
[V:1] d8 |]  
[V:2] D8 |]  
[V:3] D,8 |]  



